X:1
T:Title
%%score 1 { ( 2 4 ) | ( 3 5 ) }
L:1/8
Q:1/4=80
M:3/4
K:F
V:1 treble nm="Violin" snm="Vln."
V:2 treble nm="Piano" snm="Pno."
V:4 treble 
V:3 bass 
V:5 bass 
V:1
"^\n" z6 | B4 c2 | A4 e2 | B4 c2 | d4 c2 | B4 c2 | FG A2 A2 | B4 G2 | FG AB c2- | c4 d2 | E4 A2 | %11
 c4 A2 | d4 G2 | d2 c2 BG | A2 c2 F2 | B4 F2 | e4 A2 | B4 c2 | A4 e2 | B4 c2 | d4 c2 | B4 c2 | %22
 FG A2 A2 | B4 G2 | FG ed c2- | c4 d2 | E4 A2 | c4 A2 | d4 G2 | d2 c2 BG | A2 c2 F2 | B4 F2 | %32
 e4 Ac | d2 df e2 | A F3 A2 | B4 c2 | d4 F2 | d2 d2 e2 | A2 c2 f2 | B2 F2 c2 | f6 |] %41
V:2
 z2 z2 A,C | D2 DF E>C | FG F2 [CE]2 | DE D2 C2 | A,4 A,C | D2 DF E>C | FG A2 [CA]2 | [DA]G F2 G2 | %8
 z2 A,2 cA | G2 G2 FA | G2 .C2 cA | G2 G2 Ac | d6 | [df]2 [ce]2 [Bd]2 | [Ac]2 [Ff]2 [FA]2 | %15
 GF G2 A2 | [Gc]4 .[FA]2 | [Fd]2 df [Ge]>c | [cf]g f2 [ce]2 | de d2 [Ec]2 | [FA]4 Ac | d2 df e>c | %22
 fg a2 [Aa]2 | ag f2 [Bg]2 | [Af]6 | [Fd]2 df [Ge]>c | [cf]g f2 [ce]2 | de d2 [Ec]2 | [FA]4 Ac | %29
 d2 df e>c | fg a2 [Aa]2 | ag f2 [Bg]2 | [Af]4 z2 | [Fd]2 df [Ge]>c | [cf]g f2 [ce]2 | %35
 de d2 [Ec]2 | [FA]4 Ac | d2 df e>c | fg a2 [Aa]2 | ag f2 [Bg]2 | [FAcf]6 |] %41
V:3
 z6 | [B,,F,]2 z2 [C,G,]2 | [A,,F,]2 z2 [A,,F,]2 | [B,,F,]2 z2 [C,E,]2 | [D,F,]4 [C,E,]2 | %5
 [B,,F,]2 z2 [C,G,]2 | [A,,F,]2 z2 F,,A,, | [B,,F,]2 z2 [D,B,D]2 | z2 F,2 [A,,F,]2 | %9
 [C,G,]2 z2 [D,A,]2 | [E,C]2 z2 [A,,F,]2 | [C,G,]2 z2 [F,C]2 | B,2 z2 [G,B,]2 | %13
 [D,A,]2 [C,A,]2 [B,,F,]2 | [A,,F,]2 [G,,F,]2 [F,,F,]2 | [B,,G,]2 [G,B,]2 [F,C]2 | %16
 E,2 D,2 z[K:treble] c |[K:bass] [B,,F,]2 z2 [C,G,]2 | [A,,F,]2 z2 [A,,F,]2 | [B,,F,]2 z2 [C,G,]2 | %20
 [D,F,]4 [C,E,]2 | [B,,F,]2 z2 [C,G,]2 | [A,,F,]2 z2 F,,A,, | [B,,F,]2 z2 [D,B,]2 | [F,,A,]6 | %25
 [B,,F,]2 z2 [C,G,]2 | [A,,F,]2 z2 [A,,F,]2 | [B,,F,]2 z2 [C,G,]2 | [D,F,]4 [C,E,]2 | %29
 [B,,F,]2 z2 [C,G,]2 | [A,,F,]2 z2 F,,A,, | [B,,F,]2 z2 [D,B,]2 | z6 | [B,,F,]2 z2 [C,G,]2 | %34
 [A,,F,]2 z2 [A,,F,]2 | [B,,F,]2 z2 [C,G,]2 | [D,F,]4 [C,E,]2 | [B,,F,]2 z2 [C,G,]2 | %38
 [A,,F,]2 z2 F,,A,, | [B,,F,]2 z2 [D,B,]2 | [F,,C,F,]6 |] %41
V:4
 x6 | x6 | x6 | x6 | x6 | x6 | x6 | x6 | F4 z2 | x6 | x6 | x6 | z2 A,2 de | x6 | x6 | x6 | x6 | %17
 x6 | x6 | x6 | x6 | x6 | x6 | x6 | x6 | x6 | x6 | x6 | x6 | x6 | x6 | x6 | x6 | x6 | x6 | x6 | %36
 x6 | x6 | x6 | x6 | x6 |] %41
V:5
 x6 | x6 | x6 | x6 | x6 | x6 | x6 | x6 | x6 | x6 | x6 | x6 | x6 | x6 | x6 | x6 | %16
 z2 z2 C,2[K:treble] |[K:bass] x6 | x6 | x6 | x6 | x6 | x6 | x6 | x6 | x6 | x6 | x6 | x6 | x6 | %30
 x6 | x6 | x6 | x6 | x6 | x6 | x6 | x6 | x6 | x6 | x6 |] %41

